data/logos/tsuru.svg

<svg fill="none" height="27" viewBox="0 0 126 27" width="126" xmlns="http://www.w3.org/2000/svg"><g fill="#000"><path d="m8.69427 10.9167h3.56053l.7452-4.50003h-3.56051l1.15921-6.41667h-5.96176l-1.15923 6.41667h-2.732487l-.745223 4.50003h2.73248l-1.40764 8.1666c-.1656.8334-.24841 1.6667-.24841 2.4167 0 3.6667 2.48408 4.5 5.21656 4.5 1.32484 0 2.48408-.1667 3.39491-.4167l.828-4.5c-.57959.1667-1.15921.25-1.82163.25-1.15924 0-1.49045-.4166-1.49045-1.4166 0-.25 0-.4167 0-.6667z"/><path d="m66.0588 12.4772c-.4278-.083-1.0267-.083-1.4545-.083-2.6524 0-4.6203 1.7427-5.3904 2.5726l-2.139 12.0332h-6.0749l3.4225-19.50207h6.0748l-.5133 3.23647c1.1978-2.15764 3.0802-3.7344 5.5615-3.7344.5989 0 1.0267.08299 1.4545.24896z"/><path d="m47.6116 26.5021h-6.0331l.4132-2.5726c-1.7355 1.9087-3.8843 3.0705-6.281 3.0705-2.314 0-4.7107-.9958-4.7107-4.7303 0-.4979.0826-1.2448.1653-1.9087l2.2314-13.361h6.0331l-2.2315 12.7801v.4979c0 1.3278.6612 1.7427 1.5703 1.7427 1.405 0 2.6446-.9128 3.9669-2.1576l2.2314-12.8631h6.0331z"/><path d="m27.1914 12.0331c-1.5503-.9091-3.2727-1.4876-4.7369-1.4876-1.3779 0-2.6698.5785-2.6698 1.5702 0 2.4793 7.8373 1.2397 7.8373 7.1901 0 4.1322-3.7033 6.6942-9.2153 6.6942-2.6699 0-5.3397-.5785-7.4067-1.6529l1.8947-4.1322c1.7225.9091 3.7895 1.4876 5.512 1.4876s3.2727-.6612 3.2727-1.8182c0-2.6446-7.8373-1.5703-7.8373-7.3554 0-3.96692 3.5311-6.5289 8.5263-6.5289 2.4976 0 4.823.66116 6.6316 1.57025z"/><path d="m83.8908 26.4979h-6.1345l.4202-2.5941c-1.7647 1.9247-3.9496 3.0962-6.3866 3.0962-2.3529 0-4.7899-1.0042-4.7899-4.7699 0-.5021.084-1.2552.1681-1.9247l2.3529-13.3054h6.0504l-2.1848 12.887c-.0841.2511-.0841.4184-.0841.5021 0 1.3389.6723 1.7573 1.5126 1.7573 1.3446 0 2.6891-.9205 3.9496-2.1757l2.1849-12.9707h6.0504z"/></g><path clip-rule="evenodd" d="m108.5 27c.085 0 .085-.0836.085-.0836l.425-3.6785v-.0836l-17.8401-22.1543h-.0849l-.085.0836 1.8689 18.4759-1.3592 7.3569zm17.5-16.7203-2.888-4.93243c0-.0836-.085-.0836-.085-.0836-.043 0-.064 0-.075.01061-.01.01051-.01.03141-.01.07299l-1.869 3.42765v.0836c0 .0836.085.0836.085.0836l4.757 1.50478h.085c-.042-.0418-.064-.0627-.064-.0836s.022-.0418.064-.0836zm-4.248-4.99513c.022 0 .043.0209.085.0627 0 0 .085.0836.17.0836l-12.148 21.40193c0 .0416 0 .0625-.01.073-.011.0106-.032.0106-.075.0106h-.085c-.042 0-.064 0-.074-.0106-.011-.0105-.011-.0314-.011-.073l.51-3.8457-2.803-3.4276c-.043-.0418-.064-.0627-.064-.0836s.021-.0418.064-.0836l14.356-14.04503c.043-.0418.064-.0627.085-.0627z" fill="#009e85" fill-rule="evenodd"/></svg>

<svg width="126" height="27" viewBox="0 0 126 27" fill="none" xmlns="http://www.w3.org/2000/svg">
<path d="M8.69427 10.9167H12.2548L13 6.41667H9.43949L10.5987 0H4.63694L3.47771 6.41667H0.745223L0 10.9167H2.73248L1.32484 19.0833C1.15924 19.9167 1.07643 20.75 1.07643 21.5C1.07643 25.1667 3.56051 26 6.29299 26C7.61783 26 8.77707 25.8333 9.6879 25.5833L10.5159 21.0833C9.93631 21.25 9.35669 21.3333 8.69427 21.3333C7.53503 21.3333 7.20382 20.9167 7.20382 19.9167C7.20382 19.6667 7.20382 19.5 7.20382 19.25L8.69427 10.9167Z" fill="black"/>
<path d="M66.0588 12.4772C65.631 12.3942 65.0321 12.3942 64.6043 12.3942C61.9519 12.3942 59.984 14.1369 59.2139 14.9668L57.0749 27H51L54.4225 7.49793H60.4973L59.984 10.7344C61.1818 8.57676 63.0642 7 65.5455 7C66.1444 7 66.5722 7.08299 67 7.24896L66.0588 12.4772Z" fill="black"/>
<path d="M47.6116 26.5021H41.5785L41.9917 23.9295C40.2562 25.8382 38.1074 27 35.7107 27C33.3967 27 31 26.0042 31 22.2697C31 21.7718 31.0826 21.0249 31.1653 20.361L33.3967 7H39.4298L37.1983 19.7801C37.1983 20.029 37.1983 20.195 37.1983 20.278C37.1983 21.6058 37.8595 22.0207 38.7686 22.0207C40.1736 22.0207 41.4132 21.1079 42.7355 19.8631L44.9669 7H51L47.6116 26.5021Z" fill="black"/>
<path d="M27.1914 12.0331C25.6411 11.124 23.9187 10.5455 22.4545 10.5455C21.0766 10.5455 19.7847 11.124 19.7847 12.1157C19.7847 14.595 27.622 13.3554 27.622 19.3058C27.622 23.438 23.9187 26 18.4067 26C15.7368 26 13.067 25.4215 11 24.3471L12.8947 20.2149C14.6172 21.124 16.6842 21.7025 18.4067 21.7025C20.1292 21.7025 21.6794 21.0413 21.6794 19.8843C21.6794 17.2397 13.8421 18.314 13.8421 12.5289C13.8421 8.56198 17.3732 6 22.3684 6C24.866 6 27.1914 6.66116 29 7.57025L27.1914 12.0331Z" fill="black"/>
<path d="M83.8908 26.4979H77.7563L78.1765 23.9038C76.4118 25.8285 74.2269 27 71.7899 27C69.437 27 67 25.9958 67 22.2301C67 21.728 67.084 20.9749 67.1681 20.3054L69.521 7H75.5714L73.3866 19.887C73.3025 20.1381 73.3025 20.3054 73.3025 20.3891C73.3025 21.728 73.9748 22.1464 74.8151 22.1464C76.1597 22.1464 77.5042 21.2259 78.7647 19.9707L80.9496 7H87L83.8908 26.4979Z" fill="black"/>
<path fill-rule="evenodd" clip-rule="evenodd" d="M108.5 27C108.585 27 108.585 26.9164 108.585 26.9164L109.01 23.2379V23.1543L91.1699 1H91.085L91 1.0836L92.8689 19.5595L91.5097 26.9164L108.5 27ZM126 10.2797L123.112 5.34727C123.112 5.26367 123.027 5.26367 123.027 5.26367C122.984 5.26367 122.963 5.26367 122.952 5.27428C122.942 5.28479 122.942 5.30569 122.942 5.34727L121.073 8.77492V8.85852C121.073 8.94212 121.158 8.94212 121.158 8.94212L125.915 10.4469H126C125.958 10.4051 125.936 10.3842 125.936 10.3633C125.936 10.3424 125.958 10.3215 126 10.2797ZM121.752 5.28457C121.774 5.28457 121.795 5.30547 121.837 5.34727C121.837 5.34727 121.922 5.43087 122.007 5.43087L109.859 26.8328C109.859 26.8744 109.859 26.8953 109.849 26.9058C109.838 26.9164 109.817 26.9164 109.774 26.9164H109.689C109.647 26.9164 109.625 26.9164 109.615 26.9058C109.604 26.8953 109.604 26.8744 109.604 26.8328L110.114 22.9871L107.311 19.5595C107.268 19.5177 107.247 19.4968 107.247 19.4759C107.247 19.455 107.268 19.4341 107.311 19.3923L121.667 5.34727C121.71 5.30547 121.731 5.28457 121.752 5.28457Z" fill="#009E85"/>
</svg>
